images/5284452.svg

<?xml version="1.0" encoding="UTF-8"?>
<svg xmlns="http://www.w3.org/2000/svg" xmlns:xlink="http://www.w3.org/1999/xlink" width="300pt" height="300pt" viewBox="0 0 300 300" version="1.1">
<defs>
<g>
<symbol overflow="visible" id="glyph0-0">
<path style="stroke:none;" d="M 0.59375 2.125 L 0.59375 -8.46875 L 6.59375 -8.46875 L 6.59375 2.125 Z M 1.265625 1.453125 L 5.9375 1.453125 L 5.9375 -7.78125 L 1.265625 -7.78125 Z M 1.265625 1.453125 "/>
</symbol>
<symbol overflow="visible" id="glyph0-1">
<path style="stroke:none;" d="M 4.734375 -7.953125 C 3.867188 -7.953125 3.179688 -7.628906 2.671875 -6.984375 C 2.171875 -6.347656 1.921875 -5.472656 1.921875 -4.359375 C 1.921875 -3.265625 2.171875 -2.394531 2.671875 -1.75 C 3.179688 -1.113281 3.867188 -0.796875 4.734375 -0.796875 C 5.585938 -0.796875 6.265625 -1.113281 6.765625 -1.75 C 7.273438 -2.394531 7.53125 -3.265625 7.53125 -4.359375 C 7.53125 -5.472656 7.273438 -6.347656 6.765625 -6.984375 C 6.265625 -7.628906 5.585938 -7.953125 4.734375 -7.953125 Z M 4.734375 -8.90625 C 5.953125 -8.90625 6.925781 -8.492188 7.65625 -7.671875 C 8.394531 -6.847656 8.765625 -5.742188 8.765625 -4.359375 C 8.765625 -2.984375 8.394531 -1.882812 7.65625 -1.0625 C 6.925781 -0.238281 5.953125 0.171875 4.734375 0.171875 C 3.503906 0.171875 2.519531 -0.238281 1.78125 -1.0625 C 1.039062 -1.882812 0.671875 -2.984375 0.671875 -4.359375 C 0.671875 -5.742188 1.039062 -6.847656 1.78125 -7.671875 C 2.519531 -8.492188 3.503906 -8.90625 4.734375 -8.90625 Z M 4.734375 -8.90625 "/>
</symbol>
<symbol overflow="visible" id="glyph0-2">
<path style="stroke:none;" d="M 1.171875 -8.75 L 2.359375 -8.75 L 2.359375 -5.15625 L 6.65625 -5.15625 L 6.65625 -8.75 L 7.84375 -8.75 L 7.84375 0 L 6.65625 0 L 6.65625 -4.171875 L 2.359375 -4.171875 L 2.359375 0 L 1.171875 0 Z M 1.171875 -8.75 "/>
</symbol>
<symbol overflow="visible" id="glyph1-0">
<path style="stroke:none;" d="M 0.5 1.765625 L 0.5 -7.046875 L 5.5 -7.046875 L 5.5 1.765625 Z M 1.0625 1.21875 L 4.9375 1.21875 L 4.9375 -6.484375 L 1.0625 -6.484375 Z M 1.0625 1.21875 "/>
</symbol>
<symbol overflow="visible" id="glyph1-1">
<path style="stroke:none;" d="M 1.921875 -0.828125 L 5.359375 -0.828125 L 5.359375 0 L 0.734375 0 L 0.734375 -0.828125 C 1.109375 -1.210938 1.617188 -1.734375 2.265625 -2.390625 C 2.910156 -3.046875 3.316406 -3.46875 3.484375 -3.65625 C 3.796875 -4.007812 4.015625 -4.304688 4.140625 -4.546875 C 4.265625 -4.796875 4.328125 -5.039062 4.328125 -5.28125 C 4.328125 -5.664062 4.191406 -5.976562 3.921875 -6.21875 C 3.648438 -6.46875 3.296875 -6.59375 2.859375 -6.59375 C 2.546875 -6.59375 2.21875 -6.535156 1.875 -6.421875 C 1.539062 -6.316406 1.175781 -6.15625 0.78125 -5.9375 L 0.78125 -6.9375 C 1.175781 -7.09375 1.546875 -7.210938 1.890625 -7.296875 C 2.234375 -7.378906 2.550781 -7.421875 2.84375 -7.421875 C 3.59375 -7.421875 4.191406 -7.234375 4.640625 -6.859375 C 5.097656 -6.484375 5.328125 -5.976562 5.328125 -5.34375 C 5.328125 -5.039062 5.269531 -4.753906 5.15625 -4.484375 C 5.039062 -4.222656 4.835938 -3.910156 4.546875 -3.546875 C 4.460938 -3.453125 4.203125 -3.175781 3.765625 -2.71875 C 3.328125 -2.269531 2.710938 -1.640625 1.921875 -0.828125 Z M 1.921875 -0.828125 "/>
</symbol>
</g>
</defs>
<g id="surface41713">
<rect x="0" y="0" width="300" height="300" style="fill:rgb(100%,100%,100%);fill-opacity:1;stroke:none;"/>
<path style="fill:none;stroke-width:1.2;stroke-linecap:butt;stroke-linejoin:miter;stroke:rgb(0%,0%,0%);stroke-opacity:1;stroke-miterlimit:10;" d="M 107.546875 198.25 L 77.789062 195.824219 "/>
<path style="fill:none;stroke-width:1.2;stroke-linecap:butt;stroke-linejoin:miter;stroke:rgb(0%,0%,0%);stroke-opacity:1;stroke-miterlimit:10;" d="M 105.140625 191.007812 L 81.335938 189.066406 "/>
<path style="fill:none;stroke-width:1.2;stroke-linecap:butt;stroke-linejoin:miter;stroke:rgb(0%,0%,0%);stroke-opacity:1;stroke-miterlimit:10;" d="M 124.527344 173.691406 L 107.546875 198.25 "/>
<path style="fill:none;stroke-width:1.2;stroke-linecap:butt;stroke-linejoin:miter;stroke:rgb(0%,0%,0%);stroke-opacity:1;stroke-miterlimit:10;" d="M 77.789062 195.824219 L 65.007812 168.839844 "/>
<path style="fill:none;stroke-width:1.2;stroke-linecap:butt;stroke-linejoin:miter;stroke:rgb(0%,0%,0%);stroke-opacity:1;stroke-miterlimit:10;" d="M 65.007812 168.839844 L 81.992188 144.28125 "/>
<path style="fill:none;stroke-width:1.2;stroke-linecap:butt;stroke-linejoin:miter;stroke:rgb(0%,0%,0%);stroke-opacity:1;stroke-miterlimit:10;" d="M 72.484375 170.378906 L 86.070312 150.730469 "/>
<path style="fill:none;stroke-width:1.2;stroke-linecap:butt;stroke-linejoin:miter;stroke:rgb(0%,0%,0%);stroke-opacity:1;stroke-miterlimit:10;" d="M 65.007812 168.839844 L 50.128906 167.625 "/>
<path style="fill:none;stroke-width:1.2;stroke-linecap:butt;stroke-linejoin:miter;stroke:rgb(100%,0%,0%);stroke-opacity:1;stroke-miterlimit:10;" d="M 50.128906 167.625 L 35.25 166.414062 "/>
<path style="fill:none;stroke-width:1.2;stroke-linecap:butt;stroke-linejoin:miter;stroke:rgb(0%,0%,0%);stroke-opacity:1;stroke-miterlimit:10;" d="M 81.992188 144.28125 L 111.75 146.707031 "/>
<path style="fill:none;stroke-width:1.2;stroke-linecap:butt;stroke-linejoin:miter;stroke:rgb(0%,0%,0%);stroke-opacity:1;stroke-miterlimit:10;" d="M 81.992188 144.28125 L 75.601562 130.785156 "/>
<path style="fill:none;stroke-width:1.2;stroke-linecap:butt;stroke-linejoin:miter;stroke:rgb(100%,0%,0%);stroke-opacity:1;stroke-miterlimit:10;" d="M 75.601562 130.785156 L 69.210938 117.292969 "/>
<path style="fill:none;stroke-width:1.2;stroke-linecap:butt;stroke-linejoin:miter;stroke:rgb(0%,0%,0%);stroke-opacity:1;stroke-miterlimit:10;" d="M 111.75 146.707031 L 124.527344 173.691406 "/>
<path style="fill:none;stroke-width:1.2;stroke-linecap:butt;stroke-linejoin:miter;stroke:rgb(0%,0%,0%);stroke-opacity:1;stroke-miterlimit:10;" d="M 106.679688 152.410156 L 116.902344 174 "/>
<path style="fill:none;stroke-width:1.2;stroke-linecap:butt;stroke-linejoin:miter;stroke:rgb(0%,0%,0%);stroke-opacity:1;stroke-miterlimit:10;" d="M 124.527344 173.691406 L 154.289062 176.117188 "/>
<path style="fill:none;stroke-width:1.2;stroke-linecap:butt;stroke-linejoin:miter;stroke:rgb(0%,0%,0%);stroke-opacity:1;stroke-miterlimit:10;" d="M 154.289062 176.117188 L 167.066406 203.105469 "/>
<path style="fill:none;stroke-width:1.2;stroke-linecap:butt;stroke-linejoin:miter;stroke:rgb(0%,0%,0%);stroke-opacity:1;stroke-miterlimit:10;" d="M 161.914062 175.8125 L 172.136719 197.398438 "/>
<path style="fill:none;stroke-width:1.2;stroke-linecap:butt;stroke-linejoin:miter;stroke:rgb(100%,0%,0%);stroke-opacity:1;stroke-miterlimit:10;" d="M 171.269531 151.558594 L 162.777344 163.839844 "/>
<path style="fill:none;stroke-width:1.2;stroke-linecap:butt;stroke-linejoin:miter;stroke:rgb(0%,0%,0%);stroke-opacity:1;stroke-miterlimit:10;" d="M 162.777344 163.839844 L 154.289062 176.117188 "/>
<path style="fill:none;stroke-width:1.2;stroke-linecap:butt;stroke-linejoin:miter;stroke:rgb(0%,0%,0%);stroke-opacity:1;stroke-miterlimit:10;" d="M 167.066406 203.105469 L 196.824219 205.53125 "/>
<path style="fill:none;stroke-width:1.2;stroke-linecap:butt;stroke-linejoin:miter;stroke:rgb(0%,0%,0%);stroke-opacity:1;stroke-miterlimit:10;" d="M 167.066406 203.105469 L 158.574219 215.382812 "/>
<path style="fill:none;stroke-width:1.2;stroke-linecap:butt;stroke-linejoin:miter;stroke:rgb(100%,0%,0%);stroke-opacity:1;stroke-miterlimit:10;" d="M 158.574219 215.382812 L 150.085938 227.664062 "/>
<path style="fill:none;stroke-width:1.2;stroke-linecap:butt;stroke-linejoin:miter;stroke:rgb(0%,0%,0%);stroke-opacity:1;stroke-miterlimit:10;" d="M 193.652344 207.035156 L 200.039062 220.527344 "/>
<path style="fill:none;stroke-width:1.2;stroke-linecap:butt;stroke-linejoin:miter;stroke:rgb(100%,0%,0%);stroke-opacity:1;stroke-miterlimit:10;" d="M 200.039062 220.527344 L 206.429688 234.019531 "/>
<path style="fill:none;stroke-width:1.2;stroke-linecap:butt;stroke-linejoin:miter;stroke:rgb(0%,0%,0%);stroke-opacity:1;stroke-miterlimit:10;" d="M 200 204.027344 L 206.390625 217.519531 "/>
<path style="fill:none;stroke-width:1.2;stroke-linecap:butt;stroke-linejoin:miter;stroke:rgb(100%,0%,0%);stroke-opacity:1;stroke-miterlimit:10;" d="M 206.390625 217.519531 L 212.777344 231.011719 "/>
<path style="fill:none;stroke-width:1.2;stroke-linecap:butt;stroke-linejoin:miter;stroke:rgb(0%,0%,0%);stroke-opacity:1;stroke-miterlimit:10;" d="M 196.824219 205.53125 L 213.804688 180.972656 "/>
<path style=" stroke:none;fill-rule:nonzero;fill:rgb(100%,100%,100%);fill-opacity:1;" d="M 204.605469 225.515625 L 214.605469 225.515625 L 214.605469 239.515625 L 204.605469 239.515625 Z M 204.605469 225.515625 "/>
<g style="fill:rgb(100%,0%,0%);fill-opacity:1;">
  <use xlink:href="#glyph0-1" x="204.605469" y="236.654297"/>
</g>
<path style="fill:none;stroke-width:1.2;stroke-linecap:butt;stroke-linejoin:miter;stroke:rgb(0%,0%,0%);stroke-opacity:1;stroke-miterlimit:10;" d="M 213.804688 180.972656 L 243.566406 183.398438 "/>
<path style="fill:none;stroke-width:1.2;stroke-linecap:butt;stroke-linejoin:miter;stroke:rgb(0%,0%,0%);stroke-opacity:1;stroke-miterlimit:10;" d="M 217.351562 174.210938 L 241.160156 176.152344 "/>
<path style="fill:none;stroke-width:1.2;stroke-linecap:butt;stroke-linejoin:miter;stroke:rgb(0%,0%,0%);stroke-opacity:1;stroke-miterlimit:10;" d="M 201.027344 153.984375 L 213.804688 180.972656 "/>
<path style="fill:none;stroke-width:1.2;stroke-linecap:butt;stroke-linejoin:miter;stroke:rgb(0%,0%,0%);stroke-opacity:1;stroke-miterlimit:10;" d="M 243.566406 183.398438 L 260.546875 158.839844 "/>
<path style="fill:none;stroke-width:1.2;stroke-linecap:butt;stroke-linejoin:miter;stroke:rgb(0%,0%,0%);stroke-opacity:1;stroke-miterlimit:10;" d="M 243.566406 183.398438 L 249.953125 196.890625 "/>
<path style="fill:none;stroke-width:1.2;stroke-linecap:butt;stroke-linejoin:miter;stroke:rgb(100%,0%,0%);stroke-opacity:1;stroke-miterlimit:10;" d="M 249.953125 196.890625 L 256.34375 210.382812 "/>
<path style="fill:none;stroke-width:1.2;stroke-linecap:butt;stroke-linejoin:miter;stroke:rgb(0%,0%,0%);stroke-opacity:1;stroke-miterlimit:10;" d="M 260.546875 158.839844 L 247.769531 131.851562 "/>
<path style="fill:none;stroke-width:1.2;stroke-linecap:butt;stroke-linejoin:miter;stroke:rgb(0%,0%,0%);stroke-opacity:1;stroke-miterlimit:10;" d="M 252.917969 159.148438 L 242.695312 137.558594 "/>
<path style="fill:none;stroke-width:1.2;stroke-linecap:butt;stroke-linejoin:miter;stroke:rgb(0%,0%,0%);stroke-opacity:1;stroke-miterlimit:10;" d="M 247.769531 131.851562 L 218.007812 129.425781 "/>
<path style="fill:none;stroke-width:1.2;stroke-linecap:butt;stroke-linejoin:miter;stroke:rgb(0%,0%,0%);stroke-opacity:1;stroke-miterlimit:10;" d="M 247.769531 131.851562 L 256.257812 119.574219 "/>
<path style="fill:none;stroke-width:1.2;stroke-linecap:butt;stroke-linejoin:miter;stroke:rgb(100%,0%,0%);stroke-opacity:1;stroke-miterlimit:10;" d="M 256.257812 119.574219 L 264.75 107.292969 "/>
<path style="fill:none;stroke-width:1.2;stroke-linecap:butt;stroke-linejoin:miter;stroke:rgb(0%,0%,0%);stroke-opacity:1;stroke-miterlimit:10;" d="M 218.007812 129.425781 L 201.027344 153.984375 "/>
<path style="fill:none;stroke-width:1.2;stroke-linecap:butt;stroke-linejoin:miter;stroke:rgb(0%,0%,0%);stroke-opacity:1;stroke-miterlimit:10;" d="M 222.089844 135.878906 L 208.503906 155.527344 "/>
<path style="fill:none;stroke-width:1.2;stroke-linecap:butt;stroke-linejoin:miter;stroke:rgb(0%,0%,0%);stroke-opacity:1;stroke-miterlimit:10;" d="M 201.027344 153.984375 L 186.148438 152.773438 "/>
<path style="fill:none;stroke-width:1.2;stroke-linecap:butt;stroke-linejoin:miter;stroke:rgb(100%,0%,0%);stroke-opacity:1;stroke-miterlimit:10;" d="M 186.148438 152.773438 L 171.269531 151.558594 "/>
<path style=" stroke:none;fill-rule:nonzero;fill:rgb(100%,100%,100%);fill-opacity:1;" d="M 166.269531 144.558594 L 176.269531 144.558594 L 176.269531 158.558594 L 166.269531 158.558594 Z M 166.269531 144.558594 "/>
<g style="fill:rgb(100%,0%,0%);fill-opacity:1;">
  <use xlink:href="#glyph0-1" x="166.269531" y="155.697266"/>
</g>
<path style=" stroke:none;fill-rule:nonzero;fill:rgb(100%,100%,100%);fill-opacity:1;" d="M 255.75 100.292969 L 274.75 100.292969 L 274.75 114.292969 L 255.75 114.292969 Z M 255.75 100.292969 "/>
<g style="fill:rgb(100%,0%,0%);fill-opacity:1;">
  <use xlink:href="#glyph0-1" x="255.75" y="111.431641"/>
  <use xlink:href="#glyph0-2" x="265.195312" y="111.431641"/>
</g>
<path style=" stroke:none;fill-rule:nonzero;fill:rgb(100%,100%,100%);fill-opacity:1;" d="M 247.34375 203.382812 L 266.34375 203.382812 L 266.34375 217.382812 L 247.34375 217.382812 Z M 247.34375 203.382812 "/>
<g style="fill:rgb(100%,0%,0%);fill-opacity:1;">
  <use xlink:href="#glyph0-1" x="247.34375" y="214.521484"/>
  <use xlink:href="#glyph0-2" x="256.789062" y="214.521484"/>
</g>
<path style=" stroke:none;fill-rule:nonzero;fill:rgb(100%,100%,100%);fill-opacity:1;" d="M 131.085938 220.664062 L 150.085938 220.664062 L 150.085938 234.664062 L 131.085938 234.664062 Z M 131.085938 220.664062 "/>
<g style="fill:rgb(100%,0%,0%);fill-opacity:1;">
  <use xlink:href="#glyph0-2" x="131.085938" y="231.802734"/>
  <use xlink:href="#glyph0-1" x="140.109375" y="231.802734"/>
</g>
<path style=" stroke:none;fill-rule:nonzero;fill:rgb(100%,100%,100%);fill-opacity:1;" d="M 50.210938 110.292969 L 69.210938 110.292969 L 69.210938 124.292969 L 50.210938 124.292969 Z M 50.210938 110.292969 "/>
<g style="fill:rgb(100%,0%,0%);fill-opacity:1;">
  <use xlink:href="#glyph0-2" x="50.210938" y="121.431641"/>
  <use xlink:href="#glyph0-1" x="59.234375" y="121.431641"/>
</g>
<path style=" stroke:none;fill-rule:nonzero;fill:rgb(100%,100%,100%);fill-opacity:1;" d="M 16.25 159.414062 L 35.25 159.414062 L 35.25 173.414062 L 16.25 173.414062 Z M 16.25 159.414062 "/>
<g style="fill:rgb(100%,0%,0%);fill-opacity:1;">
  <use xlink:href="#glyph0-2" x="16.25" y="170.552734"/>
  <use xlink:href="#glyph0-1" x="25.273438" y="170.552734"/>
</g>
<path style=" stroke:none;fill-rule:nonzero;fill:rgb(100%,100%,100%);fill-opacity:1;" d="M 152.910156 77.890625 L 177.910156 77.890625 L 177.910156 96.890625 L 152.910156 96.890625 Z M 152.910156 77.890625 "/>
<g style="fill:rgb(100%,0%,0%);fill-opacity:1;">
  <use xlink:href="#glyph0-1" x="152.910156" y="89.029297"/>
  <use xlink:href="#glyph0-2" x="162.355469" y="89.029297"/>
</g>
<g style="fill:rgb(100%,0%,0%);fill-opacity:1;">
  <use xlink:href="#glyph1-1" x="171.378906" y="93.912109"/>
</g>
<path style=" stroke:none;fill-rule:nonzero;fill:rgb(100%,100%,100%);fill-opacity:1;" d="M 152.910156 57.984375 L 177.910156 57.984375 L 177.910156 76.984375 L 152.910156 76.984375 Z M 152.910156 57.984375 "/>
<g style="fill:rgb(100%,0%,0%);fill-opacity:1;">
  <use xlink:href="#glyph0-1" x="152.910156" y="69.123047"/>
  <use xlink:href="#glyph0-2" x="162.355469" y="69.123047"/>
</g>
<g style="fill:rgb(100%,0%,0%);fill-opacity:1;">
  <use xlink:href="#glyph1-1" x="171.378906" y="74.005859"/>
</g>
</g>
</svg>

<svg xmlns="http://www.w3.org/2000/svg" xmlns:xlink="http://www.w3.org/1999/xlink" width="300pt" height="300pt" viewBox="0 0 300 300"><defs><symbol overflow="visible"><path d="M.594 2.125V-8.47h6V2.126zm.672-.672h4.671V-7.78h-4.67zm0 0"/></symbol><symbol overflow="visible" id="a"><path d="M4.734-7.953c-.867 0-1.554.324-2.062.97-.5.635-.75 1.51-.75 2.624 0 1.094.25 1.965.75 2.61.508.637 1.195.953 2.062.953.852 0 1.532-.316 2.032-.953.507-.645.765-1.516.765-2.61 0-1.113-.257-1.988-.764-2.624-.5-.645-1.18-.97-2.032-.97zm0-.953c1.22 0 2.192.414 2.922 1.234.74.824 1.11 1.93 1.11 3.313 0 1.376-.37 2.477-1.11 3.298C6.926-.24 5.953.17 4.734.17c-1.23 0-2.214-.41-2.953-1.234C1.04-1.882.673-2.984.673-4.36c0-1.382.367-2.488 1.11-3.312.738-.82 1.722-1.234 2.952-1.234zm0 0"/></symbol><symbol overflow="visible" id="b"><path d="M1.172-8.75H2.36v3.594h4.296V-8.75h1.188V0H6.656v-4.172H2.36V0H1.17zm0 0"/></symbol><symbol overflow="visible"><path d="M.5 1.766v-8.813h5v8.813zm.563-.547h3.875v-7.704H1.063zm0 0"/></symbol><symbol overflow="visible" id="c"><path d="M1.922-.828H5.36V0H.733v-.828c.375-.383.883-.906 1.532-1.563.644-.657 1.05-1.08 1.218-1.266.313-.352.532-.65.657-.89.126-.25.188-.493.188-.735 0-.384-.137-.697-.406-.94-.274-.25-.625-.374-1.063-.374-.313 0-.64.06-.985.172-.336.106-.7.266-1.094.484v-1c.396-.156.767-.273 1.11-.36.344-.08.66-.124.954-.124.75 0 1.347.188 1.797.563.458.376.688.883.688 1.516 0 .305-.058.59-.172.86-.117.26-.32.574-.61.937-.085.094-.343.37-.78.828-.438.45-1.055 1.08-1.844 1.892zm0 0"/></symbol></defs><g><path fill="#fff" d="M0 0h300v300H0z"/><path d="M107.547 198.25l-29.758-2.426M105.14 191.008l-23.804-1.942M124.527 173.69l-16.98 24.56M77.79 195.824L65.007 168.84M65.008 168.84l16.984-24.56M72.484 170.38l13.586-19.65M65.008 168.84l-14.88-1.215" stroke-width="1.2" stroke="#000" stroke-miterlimit="10" fill="none"/><path d="M50.13 167.625l-14.88-1.21" stroke-width="1.2" stroke="#f00" stroke-miterlimit="10" fill="none"/><path d="M81.992 144.28l29.758 2.427M81.992 144.28l-6.39-13.495" stroke-width="1.2" stroke="#000" stroke-miterlimit="10" fill="none"/><path d="M75.602 130.785l-6.39-13.492" stroke-width="1.2" stroke="#f00" stroke-miterlimit="10" fill="none"/><path d="M111.75 146.707l12.777 26.984M106.68 152.41L116.902 174M124.527 173.69l29.762 2.427M154.29 176.117l12.776 26.988M161.914 175.813l10.223 21.585" stroke-width="1.2" stroke="#000" stroke-miterlimit="10" fill="none"/><path d="M171.27 151.56l-8.493 12.28" stroke-width="1.2" stroke="#f00" stroke-miterlimit="10" fill="none"/><path d="M162.777 163.84l-8.488 12.277M167.066 203.105l29.758 2.426M167.066 203.105l-8.492 12.278" stroke-width="1.2" stroke="#000" stroke-miterlimit="10" fill="none"/><path d="M158.574 215.383l-8.488 12.28" stroke-width="1.2" stroke="#f00" stroke-miterlimit="10" fill="none"/><path d="M193.652 207.035l6.387 13.492" stroke-width="1.2" stroke="#000" stroke-miterlimit="10" fill="none"/><path d="M200.04 220.527l6.39 13.493" stroke-width="1.2" stroke="#f00" stroke-miterlimit="10" fill="none"/><path d="M200 204.027l6.39 13.493" stroke-width="1.2" stroke="#000" stroke-miterlimit="10" fill="none"/><path d="M206.39 217.52l6.387 13.492" stroke-width="1.2" stroke="#f00" stroke-miterlimit="10" fill="none"/><path d="M196.824 205.53l16.98-24.557" stroke-width="1.2" stroke="#000" stroke-miterlimit="10" fill="none"/><path d="M204.605 225.516h10v14h-10zm0 0" fill="#fff"/><use xlink:href="#a" x="204.605" y="236.654" fill="#f00"/><path d="M213.805 180.973l29.76 2.425M217.352 174.21l23.808 1.942M201.027 153.984l12.778 26.99M243.566 183.398l16.98-24.558M243.566 183.398l6.387 13.493" stroke-width="1.2" stroke="#000" stroke-miterlimit="10" fill="none"/><path d="M249.953 196.89l6.39 13.493" stroke-width="1.2" stroke="#f00" stroke-miterlimit="10" fill="none"/><path d="M260.547 158.84l-12.777-26.988M252.918 159.148l-10.223-21.59M247.77 131.852l-29.762-2.426M247.77 131.852l8.488-12.278" stroke-width="1.2" stroke="#000" stroke-miterlimit="10" fill="none"/><path d="M256.258 119.574l8.492-12.28" stroke-width="1.2" stroke="#f00" stroke-miterlimit="10" fill="none"/><path d="M218.008 129.426l-16.98 24.558M222.09 135.88l-13.586 19.647M201.027 153.984l-14.88-1.21" stroke-width="1.2" stroke="#000" stroke-miterlimit="10" fill="none"/><path d="M186.148 152.773l-14.878-1.214" stroke-width="1.2" stroke="#f00" stroke-miterlimit="10" fill="none"/><path d="M166.27 144.56h10v14h-10zm0 0" fill="#fff"/><use xlink:href="#a" x="166.27" y="155.697" fill="#f00"/><path d="M255.75 100.293h19v14h-19zm0 0" fill="#fff"/><g fill="#f00"><use xlink:href="#a" x="255.75" y="111.432"/><use xlink:href="#b" x="265.195" y="111.432"/></g><path d="M247.344 203.383h19v14h-19zm0 0" fill="#fff"/><g fill="#f00"><use xlink:href="#a" x="247.344" y="214.521"/><use xlink:href="#b" x="256.789" y="214.521"/></g><path d="M131.086 220.664h19v14h-19zm0 0" fill="#fff"/><g fill="#f00"><use xlink:href="#b" x="131.086" y="231.803"/><use xlink:href="#a" x="140.109" y="231.803"/></g><path d="M50.21 110.293h19v14h-19zm0 0" fill="#fff"/><g fill="#f00"><use xlink:href="#b" x="50.211" y="121.432"/><use xlink:href="#a" x="59.234" y="121.432"/></g><path d="M16.25 159.414h19v14h-19zm0 0" fill="#fff"/><g fill="#f00"><use xlink:href="#b" x="16.25" y="170.553"/><use xlink:href="#a" x="25.273" y="170.553"/></g><path d="M152.91 77.89h25v19h-25zm0 0" fill="#fff"/><g fill="#f00"><use xlink:href="#a" x="152.91" y="89.029"/><use xlink:href="#b" x="162.355" y="89.029"/></g><use xlink:href="#c" x="171.379" y="93.912" fill="#f00"/><path d="M152.91 57.984h25v19h-25zm0 0" fill="#fff"/><g fill="#f00"><use xlink:href="#a" x="152.91" y="69.123"/><use xlink:href="#b" x="162.355" y="69.123"/></g><use xlink:href="#c" x="171.379" y="74.006" fill="#f00"/></g></svg>
